<?xml version="1.0" encoding="UTF-8"?>
<map version="1.10" tiledversion="1.10.2" orientation="orthogonal" renderorder="right-down" width="60" height="27" tilewidth="16" tileheight="16" infinite="0" nextlayerid="5" nextobjectid="1">
 <tileset firstgid="1" source="EXTERIOR1.tsx"/>
 <tileset firstgid="151" source="COLLISION.tsx"/>
 <tileset firstgid="152" source="HOTSPOT.tsx"/>
 <tileset firstgid="184" source="EVENT.tsx"/>
 <layer id="1" name="Background" width="60" height="27">
  <data encoding="csv">
93,94,94,93,94,94,93,94,94,93,126,125,127,129,129,129,129,129,129,129,129,129,129,129,129,129,129,129,129,129,129,129,129,129,129,129,129,129,129,129,129,129,129,129,129,128,1,7,20,21,22,6,6,6,6,6,6,6,6,6,
108,109,109,108,109,109,108,109,109,108,124,125,128,129,129,129,129,129,129,129,129,129,129,129,129,129,129,129,129,129,129,129,129,129,129,129,129,129,129,129,129,129,129,129,129,128,1,66,35,36,37,6,6,6,6,6,6,6,6,6,
80,80,80,80,8,9,10,11,12,81,16,17,128,129,129,129,129,129,129,129,129,129,129,129,129,129,129,129,129,129,129,129,129,129,129,129,129,129,129,129,129,129,129,129,129,128,1,66,50,51,52,6,6,6,130,6,80,6,130,6,
80,20,21,22,23,24,25,26,27,81,16,17,128,129,129,129,129,129,129,129,129,129,129,129,129,129,129,129,129,129,129,129,129,129,129,129,129,129,129,129,129,129,129,129,129,128,1,66,81,81,6,6,6,6,6,6,66,80,66,6,
80,35,36,37,38,39,40,41,42,81,16,17,126,125,125,125,125,125,125,125,125,125,125,125,125,127,129,129,129,129,129,129,129,129,129,129,129,129,129,129,129,129,129,129,129,128,1,66,66,81,66,80,66,66,66,66,66,80,80,6,
80,50,51,52,53,54,55,56,57,81,16,17,124,125,125,125,125,125,125,125,125,125,125,125,125,128,129,129,129,129,129,129,129,129,129,129,129,129,129,129,129,129,129,129,129,128,1,81,66,6,7,80,80,80,80,80,80,130,66,80,
80,80,80,67,68,69,70,71,72,73,18,19,16,17,17,17,17,17,17,17,17,17,17,17,17,128,129,129,129,129,129,129,129,129,129,129,129,129,129,129,129,129,129,129,129,128,1,66,6,130,81,81,7,7,80,7,80,80,66,80,
80,80,80,82,83,84,85,86,87,88,1,1,18,19,19,4,5,19,19,19,4,5,19,19,19,128,129,129,129,129,129,129,129,129,129,129,129,129,129,129,129,129,129,129,129,128,1,66,6,81,81,8,9,10,11,12,80,80,80,80,
6,80,130,7,98,99,100,101,102,95,96,1,33,49,49,49,49,49,49,49,49,49,49,49,49,128,129,129,129,129,129,129,129,129,129,129,129,129,129,129,129,129,129,129,129,128,1,66,6,6,81,23,24,25,26,27,7,80,80,80,
6,6,6,80,113,114,115,116,7,110,111,1,48,3,3,3,3,3,3,3,3,3,3,3,3,128,129,129,129,129,129,129,129,129,129,129,129,129,129,129,129,129,129,129,129,128,1,81,66,81,81,38,39,40,41,42,7,7,80,80,
6,112,112,6,81,81,81,81,6,81,81,1,48,47,47,47,47,47,47,47,47,47,47,47,47,128,129,129,129,129,129,129,129,129,129,129,129,129,129,129,129,129,129,129,129,128,1,66,81,81,81,53,54,55,56,57,7,7,80,80,
66,81,112,112,130,112,6,6,6,6,81,1,48,47,47,63,63,47,47,47,63,63,47,47,47,128,129,129,129,129,129,129,129,129,129,129,129,129,129,129,129,129,129,129,129,128,1,66,66,81,67,68,69,70,71,72,73,7,80,80,
6,6,112,112,112,112,112,112,130,6,7,1,48,47,47,63,63,47,47,47,63,63,47,47,47,128,129,129,129,129,129,129,129,129,129,129,129,129,129,129,129,129,129,129,129,128,1,66,81,6,82,83,84,85,86,87,88,7,80,7,
6,66,81,130,6,6,66,7,6,7,7,1,48,47,47,47,47,47,47,47,47,47,47,47,47,128,129,129,129,129,129,129,129,129,129,129,129,129,129,129,129,129,129,129,129,128,1,7,81,6,130,98,99,100,101,102,103,112,112,112,
130,7,7,7,7,6,6,6,7,130,7,1,48,47,47,47,47,47,47,47,47,47,47,47,47,128,129,129,129,129,129,129,129,129,129,129,129,129,129,129,129,129,129,129,129,128,1,7,6,6,6,113,114,115,116,7,112,130,112,112,
6,7,7,6,6,7,7,97,7,7,7,130,48,47,47,63,63,47,47,47,63,63,47,47,47,128,129,129,129,129,129,129,129,129,129,129,129,129,129,129,129,129,129,129,129,128,1,7,6,6,6,6,6,6,6,6,112,112,112,112,
7,43,44,45,97,97,97,97,97,97,97,97,48,47,47,63,63,47,47,47,63,63,47,47,47,128,129,129,129,129,129,129,129,129,129,129,129,129,129,129,129,129,129,129,129,128,1,95,96,81,6,6,6,6,6,6,112,112,112,112,
97,58,59,60,97,97,97,97,97,97,97,123,48,47,47,47,47,47,47,47,47,47,47,47,47,126,125,125,125,125,125,125,125,125,125,125,125,125,125,125,125,125,125,125,125,61,1,110,111,6,6,6,6,6,6,6,112,112,112,112,
1,1,1,1,1,1,1,1,1,1,1,122,48,47,47,47,47,47,47,47,47,47,47,47,47,124,125,125,125,125,125,125,125,125,125,125,125,125,125,125,125,125,125,125,125,77,1,95,96,6,6,6,6,6,6,112,130,112,112,112,
1,1,1,1,1,1,1,1,1,1,1,122,48,47,47,47,47,47,47,47,47,47,47,47,47,16,17,17,17,17,17,17,17,17,17,17,17,17,17,17,17,17,17,17,17,62,1,110,111,81,81,6,6,6,6,112,112,112,112,112,
1,1,1,1,1,1,1,1,1,1,1,122,34,49,49,49,49,49,49,49,49,49,49,49,49,16,17,4,5,17,17,17,4,5,17,17,17,4,5,17,17,17,4,5,17,62,1,81,81,81,81,112,112,112,112,112,112,112,112,112,
1,1,1,1,1,1,1,1,1,1,1,122,2,3,3,3,3,3,3,3,3,3,3,3,3,16,17,17,17,17,17,17,17,17,17,17,17,17,17,17,17,17,17,17,17,62,1,81,81,81,6,112,6,6,6,112,112,112,112,112,
6,114,114,114,114,114,114,114,114,114,7,121,31,107,32,32,32,32,107,32,32,32,32,107,32,16,17,4,5,17,17,17,4,5,17,17,17,4,5,17,17,17,4,5,17,62,1,81,81,112,112,130,6,6,6,6,6,20,21,22,
6,66,7,7,7,114,114,114,114,7,7,7,18,19,19,19,19,19,19,19,19,19,19,19,19,19,19,19,19,19,19,19,19,19,19,19,19,19,19,19,19,19,19,19,19,46,1,81,81,112,112,112,112,112,6,6,112,35,36,37,
81,66,66,66,7,7,7,7,7,7,66,66,1,1,1,1,1,1,1,1,1,1,1,1,1,1,1,1,1,1,1,1,1,1,1,1,1,1,1,1,1,1,1,1,1,1,1,81,7,112,112,112,112,112,112,112,112,50,51,52,
81,66,66,130,66,7,7,7,7,7,7,7,66,66,81,95,96,80,80,6,6,6,6,7,7,81,81,95,96,95,96,7,7,81,81,6,6,6,6,6,6,6,6,7,7,7,7,7,7,81,112,112,112,112,112,112,112,80,80,80,
6,66,66,66,66,66,66,66,66,130,66,66,66,66,66,110,111,80,80,6,6,6,6,130,81,81,81,110,111,110,111,7,7,81,130,81,6,6,6,6,130,6,6,6,6,81,81,81,81,130,112,112,112,112,112,112,112,80,80,80
</data>
 </layer>
 <layer id="2" name="Collision" width="60" height="27">
  <data encoding="csv">
151,151,151,151,151,151,151,151,151,151,151,151,151,151,151,151,151,151,151,151,151,151,151,151,151,151,151,151,151,151,151,151,151,151,151,151,151,151,151,151,151,151,151,151,151,151,0,0,0,151,0,0,0,0,0,0,0,0,0,151,
151,0,0,0,0,0,0,0,0,0,151,151,151,151,151,151,151,151,151,151,151,151,151,151,151,151,151,151,151,151,151,151,151,151,151,151,151,151,151,151,151,151,151,151,151,151,0,0,151,151,151,0,0,0,0,0,0,0,0,151,
151,0,0,0,151,151,151,151,151,0,151,151,151,151,151,151,151,151,151,151,151,151,151,151,151,151,151,151,151,151,151,151,151,151,151,151,151,151,151,151,151,151,151,151,151,151,0,0,0,0,0,0,0,0,0,0,0,0,0,151,
151,0,151,151,151,151,151,151,151,0,151,151,151,151,151,151,151,151,151,151,151,151,151,151,151,151,151,151,151,151,151,151,151,151,151,151,151,151,151,151,151,151,151,151,151,151,0,0,0,0,0,0,0,0,0,0,0,0,0,151,
151,151,151,151,151,151,151,151,151,0,151,151,151,151,151,151,151,151,151,151,151,151,151,151,151,151,151,151,151,151,151,151,151,151,151,151,151,151,151,151,151,151,151,151,151,151,0,0,0,0,0,0,0,0,0,0,0,0,0,151,
151,0,0,0,151,151,151,151,151,0,151,151,151,151,151,151,151,151,151,151,151,151,151,151,151,151,151,151,151,151,151,151,151,151,151,151,151,151,151,151,151,151,151,151,151,151,0,0,0,0,0,0,0,0,0,0,0,0,0,151,
151,0,0,0,0,151,151,151,0,0,0,0,151,151,151,151,151,151,151,151,151,151,151,151,151,151,151,151,151,151,151,151,151,151,151,151,151,151,151,151,151,151,151,151,151,151,0,0,0,0,0,0,0,0,0,0,0,0,0,151,
151,0,0,0,0,0,0,0,0,0,0,0,151,151,151,0,0,151,151,151,151,151,151,151,151,151,151,151,151,151,151,151,151,151,151,151,151,151,151,151,151,151,151,151,151,151,0,0,0,0,0,0,151,151,151,0,0,0,0,151,
151,0,0,0,0,0,0,0,0,0,0,0,151,151,151,0,0,151,151,151,151,151,151,151,151,151,151,151,151,151,151,151,151,151,151,151,151,151,151,151,151,151,151,151,151,151,0,0,0,0,0,151,151,151,151,151,0,0,0,151,
151,0,0,0,0,0,0,0,0,0,0,0,151,0,0,0,0,0,0,0,0,0,0,0,0,151,151,151,151,151,151,151,151,151,151,151,151,151,151,151,151,151,151,151,151,151,0,0,0,0,0,151,151,151,151,151,0,0,0,151,
151,0,0,0,0,0,0,0,0,0,0,0,151,0,0,0,0,0,0,0,0,0,0,0,0,151,151,151,151,151,151,151,151,151,151,151,151,151,151,151,151,151,151,151,151,151,0,0,0,0,0,151,151,151,151,151,0,0,0,151,
151,0,0,0,0,0,0,0,0,0,0,0,151,0,0,0,0,0,0,0,0,0,0,0,0,151,151,151,151,151,151,151,151,151,151,151,151,151,151,151,151,151,151,151,151,151,0,0,0,0,0,0,0,151,0,0,0,0,0,151,
151,0,0,0,0,0,0,0,0,0,0,0,151,0,0,0,0,0,0,0,0,0,0,0,0,151,151,151,151,151,151,151,151,151,151,151,151,151,151,151,151,151,151,151,151,151,0,0,0,0,0,0,0,0,0,0,0,0,0,151,
151,0,0,0,0,0,0,0,0,0,0,0,151,0,0,0,0,0,0,0,0,0,0,0,0,151,151,151,151,151,151,151,151,151,151,151,151,151,151,151,151,151,151,151,151,151,0,0,0,0,0,0,0,0,0,0,0,0,0,151,
151,0,0,0,0,0,0,0,0,0,0,0,151,0,0,0,0,0,0,0,0,0,0,0,0,151,151,151,151,151,151,151,151,151,151,151,151,151,151,151,151,151,151,151,151,151,0,0,0,0,0,0,0,0,0,0,0,0,0,151,
151,0,0,0,0,0,0,0,0,0,0,0,151,0,0,0,0,0,0,0,0,0,0,0,0,151,151,151,151,151,151,151,151,151,151,151,151,151,151,151,151,151,151,151,151,151,0,0,0,0,0,0,0,0,0,0,0,0,0,151,
151,151,151,151,0,0,0,0,0,0,0,0,151,0,0,0,0,0,0,0,0,0,0,0,0,151,151,151,151,151,151,151,151,151,151,151,151,151,151,151,151,151,151,151,151,151,0,0,0,0,0,0,0,0,0,0,0,0,0,151,
151,0,0,0,0,0,0,0,0,0,0,0,151,0,0,0,0,0,0,0,0,0,0,0,0,151,151,151,151,151,151,151,151,151,151,151,151,151,151,151,151,151,151,151,151,151,0,0,0,0,0,0,0,0,0,0,0,0,0,151,
151,0,0,0,0,0,0,0,0,0,0,0,151,0,0,0,0,0,0,0,0,0,0,0,0,151,151,151,151,151,151,151,151,151,151,151,151,151,151,151,151,151,151,151,151,151,0,0,0,0,0,0,0,0,0,0,0,0,0,151,
151,0,0,0,0,0,0,0,0,0,0,0,151,0,0,0,0,0,0,0,0,0,0,0,0,151,151,151,151,151,151,151,151,151,151,151,151,151,151,151,151,151,151,151,151,151,0,0,0,0,0,0,0,0,0,0,0,0,0,151,
151,0,0,0,0,0,0,0,0,0,0,0,151,151,151,151,151,151,151,151,151,151,151,151,151,151,151,151,151,151,151,151,151,151,151,151,151,151,151,151,151,151,151,151,151,151,0,0,0,0,0,0,0,0,0,0,0,0,0,151,
151,0,0,0,0,0,0,0,0,0,0,0,151,151,151,151,151,151,151,151,151,151,151,151,151,151,151,151,151,151,151,151,151,151,151,151,151,151,151,151,151,151,151,151,151,151,0,0,0,0,0,0,0,0,0,0,0,0,0,151,
151,0,0,0,0,0,0,0,0,0,0,0,151,151,151,151,151,151,151,151,151,151,151,151,151,151,151,151,151,151,151,151,151,151,151,151,151,151,151,151,151,151,151,151,151,151,0,0,0,0,0,0,0,0,0,0,0,0,151,151,
151,0,0,0,0,0,0,0,0,0,0,0,0,0,0,0,0,0,0,0,0,0,0,0,0,0,0,0,0,0,0,0,0,0,0,0,0,0,0,0,0,0,0,0,0,0,0,0,0,0,0,0,0,0,0,0,0,151,151,151,
151,0,0,0,0,0,0,0,0,0,0,0,0,0,0,0,0,0,0,0,0,0,0,0,0,0,0,0,0,0,0,0,0,0,0,0,0,0,0,0,0,0,0,0,0,0,0,0,0,0,0,0,0,0,0,0,0,0,0,151,
151,151,151,151,151,151,151,151,151,151,151,151,151,151,151,151,151,151,151,151,151,151,151,151,151,151,151,151,151,151,151,151,151,151,151,151,151,151,151,151,151,151,151,151,151,151,151,151,151,151,151,151,151,151,151,151,151,151,151,151,
151,151,151,151,151,151,151,151,151,151,151,151,151,151,151,151,151,151,151,151,151,151,151,151,151,151,151,151,151,151,151,151,151,151,151,151,151,151,151,151,151,151,151,151,151,151,151,151,151,151,151,151,151,151,151,151,151,151,151,151
</data>
 </layer>
 <layer id="3" name="Hotspot" width="60" height="27">
  <data encoding="csv">
0,0,0,0,0,0,0,0,0,0,0,0,0,0,0,0,0,0,0,0,0,0,0,0,0,0,0,0,0,0,0,0,0,0,0,0,0,0,0,0,0,0,0,0,0,0,0,0,0,0,0,0,0,0,0,0,0,0,0,0,
0,0,0,0,0,0,0,0,0,0,0,0,0,0,0,0,0,0,0,0,0,0,0,0,0,0,0,0,0,0,0,0,0,0,0,0,0,0,0,0,0,0,0,0,0,0,0,0,0,0,0,0,0,0,0,0,0,0,0,0,
0,0,0,0,0,0,0,0,0,0,0,0,0,0,0,0,0,0,0,0,0,0,0,0,0,0,0,0,0,0,0,0,0,0,0,0,0,0,0,0,0,0,0,0,0,0,0,0,0,0,0,0,0,0,0,0,0,0,0,0,
0,0,0,0,0,0,0,0,0,0,0,0,0,0,0,0,0,0,0,0,0,0,0,0,0,0,0,0,0,0,0,0,0,0,0,0,0,0,0,0,0,0,0,0,0,0,0,0,0,0,0,0,0,0,0,0,0,0,0,0,
0,0,0,0,0,0,0,0,0,0,0,0,0,0,0,0,0,0,0,0,0,0,0,0,0,0,0,0,0,0,0,0,0,0,0,0,0,0,0,0,0,0,0,0,0,0,0,0,0,0,0,0,0,0,0,0,0,0,0,0,
0,0,0,0,0,0,0,0,0,0,0,0,0,0,0,0,0,0,0,0,0,0,0,0,0,0,0,0,0,0,0,0,0,0,0,0,0,0,0,0,0,0,0,0,0,0,0,0,0,0,0,0,0,0,0,0,0,0,0,0,
0,0,0,0,0,0,0,0,0,0,0,0,0,0,0,0,0,0,0,0,0,0,0,0,0,0,0,0,0,0,0,0,0,0,0,0,0,0,0,0,0,0,0,0,0,0,0,0,0,0,0,0,0,0,0,0,0,0,0,0,
0,0,0,0,0,0,0,0,0,0,0,0,0,0,0,164,164,0,0,0,0,0,0,0,0,0,0,0,0,0,0,0,0,0,0,0,0,0,0,0,0,0,0,0,0,0,0,0,0,0,0,0,0,0,0,0,0,0,0,0,
0,0,0,0,0,0,0,0,0,0,0,0,0,0,0,164,164,0,0,0,0,0,0,0,0,0,0,0,0,0,0,0,0,0,0,0,0,0,0,0,0,0,0,0,0,0,0,0,0,0,0,0,0,0,0,0,0,0,0,0,
0,0,0,0,0,0,0,0,0,0,0,0,0,0,0,0,0,0,0,0,0,0,0,0,0,0,0,0,0,0,0,0,0,0,0,0,0,0,0,0,0,0,0,0,0,0,0,0,0,0,0,0,0,0,0,0,0,0,0,0,
0,0,0,0,0,0,0,0,0,0,0,0,0,0,0,0,0,0,0,0,0,0,0,0,0,0,0,0,0,0,0,0,0,0,0,0,0,0,0,0,0,0,0,0,0,0,0,0,0,0,0,0,0,0,0,0,0,0,0,0,
0,0,0,0,0,0,0,0,0,0,0,0,0,0,0,0,0,0,0,0,0,0,0,0,0,0,0,0,0,0,0,0,0,0,0,0,0,0,0,0,0,0,0,0,0,0,0,0,0,0,0,0,0,0,0,0,0,0,0,0,
0,0,0,0,0,0,0,0,0,0,0,0,0,0,0,0,0,0,0,0,0,0,0,0,0,0,0,0,0,0,0,0,0,0,0,0,0,0,0,0,0,0,0,0,0,0,0,0,0,0,0,0,0,0,0,0,0,0,0,0,
0,0,0,0,0,0,0,0,0,0,0,0,0,0,0,0,0,0,0,0,0,0,0,0,0,0,0,0,0,0,0,0,0,0,0,0,0,0,0,0,0,0,0,0,0,0,0,0,0,0,0,0,0,0,0,0,0,0,0,0,
0,0,0,0,0,0,0,0,0,0,0,0,0,0,0,0,0,0,0,0,0,0,0,0,0,0,0,0,0,0,0,0,0,0,0,0,0,0,0,0,0,0,0,0,0,0,0,0,0,0,0,0,0,0,0,0,0,0,0,0,
0,0,0,0,159,159,159,159,159,0,0,0,0,0,0,0,0,0,0,0,0,0,0,0,0,0,0,0,0,0,0,0,0,0,0,0,0,0,0,0,0,0,0,0,0,0,0,0,0,0,0,0,0,0,0,0,0,0,0,0,
0,0,0,0,159,159,159,159,159,0,0,0,0,0,0,0,0,0,0,0,0,0,0,0,0,0,0,0,0,0,0,0,0,0,0,0,0,0,0,0,0,0,0,0,0,0,0,0,0,0,0,0,0,0,0,0,0,0,0,0,
0,0,0,0,0,0,0,0,0,0,0,0,0,0,165,165,165,0,0,0,0,0,0,0,0,0,0,0,0,0,0,0,0,0,0,0,0,0,0,0,0,0,0,0,0,0,0,0,0,0,0,0,0,0,0,0,0,0,0,0,
0,0,0,0,0,0,0,0,0,0,0,0,0,0,165,165,165,0,0,0,0,0,0,0,0,0,0,0,0,0,0,0,0,0,0,0,0,0,0,0,0,0,0,0,0,0,0,0,0,0,0,0,0,0,0,0,0,0,0,0,
0,0,0,0,0,0,0,0,0,0,0,0,0,0,0,0,0,0,0,0,0,0,0,0,0,0,0,0,0,0,0,0,0,0,0,0,0,0,0,0,0,0,0,0,0,0,0,0,0,0,0,0,0,0,0,0,0,0,0,0,
0,0,0,0,0,0,0,0,0,0,0,0,0,0,0,0,0,0,0,0,0,0,0,0,0,0,0,0,0,0,0,0,0,0,0,0,0,0,0,0,0,0,0,0,0,0,0,0,0,0,0,0,0,0,0,0,0,0,0,0,
0,0,0,0,0,0,0,0,0,0,0,0,0,0,0,0,0,0,0,0,0,0,0,0,0,0,0,0,0,0,0,0,0,0,0,0,0,0,0,0,0,0,0,0,0,0,0,0,0,0,0,0,0,0,0,0,0,0,0,0,
0,0,0,0,0,0,0,0,0,0,0,0,0,0,0,0,0,0,0,0,0,0,0,0,0,0,0,0,0,0,0,0,0,0,0,0,0,0,0,0,0,0,0,0,0,0,0,0,0,0,0,0,0,0,0,0,0,0,0,0,
0,0,0,0,0,0,0,0,0,0,0,0,0,0,0,0,0,0,0,0,0,0,0,0,0,0,0,0,0,0,0,0,0,0,0,0,0,0,0,0,0,0,0,0,0,0,0,0,0,0,0,0,0,0,0,0,0,0,0,0,
0,0,0,0,0,0,0,0,0,0,0,0,0,0,0,0,0,0,0,0,0,0,0,0,0,0,0,0,0,0,0,0,0,0,0,0,0,0,0,0,0,0,0,0,0,0,0,0,0,0,0,0,0,0,0,0,0,0,0,0,
0,0,0,0,0,0,0,0,0,0,0,0,0,0,0,0,0,0,0,0,0,0,0,0,0,0,0,0,0,0,0,0,0,0,0,0,0,0,0,0,0,0,0,0,0,0,0,0,0,0,0,0,0,0,0,0,0,0,0,0,
0,0,0,0,0,0,0,0,0,0,0,0,0,0,0,0,0,0,0,0,0,0,0,0,0,0,0,0,0,0,0,0,0,0,0,0,0,0,0,0,0,0,0,0,0,0,0,0,0,0,0,0,0,0,0,0,0,0,0,0
</data>
 </layer>
 <layer id="4" name="Event" width="60" height="27">
  <data encoding="csv">
0,0,0,0,0,0,0,0,0,0,0,0,0,0,0,0,0,0,0,0,0,0,0,0,0,0,0,0,0,0,0,0,0,0,0,0,0,0,0,0,0,0,0,0,0,0,0,186,186,0,186,186,186,186,186,186,186,186,186,186,
0,0,0,0,0,0,0,0,0,0,0,0,0,0,0,0,0,0,0,0,0,0,0,0,0,0,0,0,0,0,0,0,0,0,0,0,0,0,0,0,0,0,0,0,0,0,0,0,0,0,0,0,0,0,0,0,0,0,0,0,
0,0,0,0,0,0,0,0,0,0,0,0,0,0,0,0,0,0,0,0,0,0,0,0,0,0,0,0,0,0,0,0,0,0,0,0,0,0,0,0,0,0,0,0,0,0,0,0,0,0,0,0,0,0,0,0,0,0,0,0,
0,0,0,0,0,0,0,0,0,0,0,0,0,0,0,0,0,0,0,0,0,0,0,0,0,0,0,0,0,0,0,0,0,0,0,0,0,0,0,0,0,0,0,0,0,0,0,0,0,0,0,0,0,0,0,0,0,0,0,0,
0,0,0,0,0,0,0,0,0,0,0,0,0,0,0,0,0,0,0,0,0,0,0,0,0,0,0,0,0,0,0,0,0,0,0,0,0,0,0,0,0,0,0,0,0,0,0,0,0,0,0,0,0,0,0,0,0,0,0,0,
0,0,0,0,0,0,0,0,0,0,0,0,0,0,0,0,0,0,0,0,0,0,0,0,0,0,0,0,0,0,0,0,0,0,0,0,0,0,0,0,0,0,0,0,0,0,0,0,0,0,0,0,0,0,0,0,0,0,0,0,
0,0,0,0,0,0,0,0,0,0,0,0,0,0,0,0,0,0,0,0,0,0,0,0,0,0,0,0,0,0,0,0,0,0,0,0,0,0,0,0,0,0,0,0,0,0,0,0,0,0,0,0,0,0,0,0,0,0,0,0,
0,0,0,0,0,0,0,0,0,0,0,0,0,0,0,0,0,0,0,0,0,0,0,0,0,0,0,0,0,0,0,0,0,0,0,0,0,0,0,0,0,0,0,0,0,0,0,0,0,0,0,0,0,0,0,0,0,0,0,0,
0,0,0,0,0,0,0,0,0,0,0,0,0,0,0,0,0,0,0,0,0,0,0,0,0,0,0,0,0,0,0,0,0,0,0,0,0,0,0,0,0,0,0,0,0,0,0,0,0,0,0,0,0,0,0,0,0,0,0,0,
0,0,0,0,0,0,0,0,0,0,0,0,0,0,0,0,0,0,0,0,0,0,0,0,0,0,0,0,0,0,0,0,0,0,0,0,0,0,0,0,0,0,0,0,0,0,0,0,0,0,0,0,0,0,0,0,0,0,0,0,
0,0,0,0,0,0,0,0,0,0,0,0,0,0,0,0,0,0,0,0,0,0,0,0,0,0,0,0,0,0,0,0,0,0,0,0,0,0,0,0,0,0,0,0,0,0,0,0,0,0,0,0,0,0,0,0,0,0,0,0,
0,0,0,0,0,0,0,0,0,0,0,0,0,0,0,187,187,0,0,0,188,188,0,0,0,0,0,0,0,0,0,0,0,0,0,0,0,0,0,0,0,0,0,0,0,0,0,0,0,0,0,0,0,0,0,0,0,0,0,0,
0,0,0,0,0,0,0,0,0,0,0,0,0,0,0,187,187,0,0,0,188,188,0,0,0,0,0,0,0,0,0,0,0,0,0,0,0,0,0,0,0,0,0,0,0,0,0,0,0,0,0,0,0,0,0,0,0,0,0,0,
0,0,0,0,0,0,0,0,0,0,0,0,0,0,0,0,0,0,0,0,0,0,0,0,0,0,0,0,0,0,0,0,0,0,0,0,0,0,0,0,0,0,0,0,0,0,0,0,0,0,0,0,0,0,0,0,0,0,0,0,
0,0,0,0,0,0,0,0,0,0,0,0,0,0,0,0,0,0,0,0,0,0,0,0,0,0,0,0,0,0,0,0,0,0,0,0,0,0,0,0,0,0,0,0,0,0,0,0,0,0,0,0,0,0,0,0,0,0,0,0,
0,0,0,0,0,0,0,0,0,0,0,0,0,0,0,189,189,0,0,0,190,190,0,0,0,0,0,0,0,0,0,0,0,0,0,0,0,0,0,0,0,0,0,0,0,0,0,0,0,0,0,0,0,0,0,0,0,0,0,0,
0,0,0,0,0,0,0,0,0,0,0,0,0,0,0,189,189,0,0,0,190,190,0,0,0,0,0,0,0,0,0,0,0,0,0,0,0,0,0,0,0,0,0,0,0,0,0,0,0,0,0,0,0,0,0,0,0,0,0,0,
0,0,0,0,0,0,0,0,0,0,0,0,0,0,0,0,0,0,0,0,0,0,0,0,0,0,0,0,0,0,0,0,0,0,0,0,0,0,0,0,0,0,0,0,0,0,0,0,0,0,0,0,0,0,0,0,0,0,0,0,
0,184,0,0,0,0,0,0,0,0,0,185,0,0,0,0,0,0,0,0,0,0,0,0,0,0,0,0,0,0,0,0,0,0,0,0,0,0,0,0,0,0,0,0,0,0,0,0,0,0,0,0,0,0,0,0,0,0,0,0,
0,184,0,0,0,0,0,0,0,0,0,185,0,0,0,0,0,0,0,0,0,0,0,0,0,0,0,0,0,0,0,0,0,0,0,0,0,0,0,0,0,0,0,0,0,0,0,0,0,0,0,0,0,0,0,0,0,0,0,0,
0,184,0,0,0,0,0,0,0,0,0,185,0,0,0,0,0,0,0,0,0,0,0,0,0,0,0,0,0,0,0,0,0,0,0,0,0,0,0,0,0,0,0,0,0,0,0,0,0,0,0,0,0,0,0,0,0,0,0,0,
0,184,0,0,0,0,0,0,0,0,0,185,0,0,0,0,0,0,0,0,0,0,0,0,0,0,0,0,0,0,0,0,0,0,0,0,0,0,0,0,0,0,0,0,0,0,0,0,0,0,0,0,0,0,0,0,0,0,0,0,
0,0,0,0,0,0,0,0,0,0,0,0,0,0,0,0,0,0,0,0,0,0,0,0,0,0,0,0,0,0,0,0,0,0,0,0,0,0,0,0,0,0,0,0,0,0,0,0,0,0,0,0,0,0,0,0,0,0,0,0,
0,0,0,0,0,0,0,0,0,0,0,0,0,0,0,0,0,0,0,0,0,0,0,0,0,0,0,0,0,0,0,0,0,0,0,0,0,0,0,0,0,0,0,0,0,0,0,0,0,0,0,0,0,0,0,0,0,0,0,0,
0,0,0,0,0,0,0,0,0,0,0,0,0,0,0,0,0,0,0,0,0,0,0,0,0,0,0,0,0,0,0,0,0,0,0,0,0,0,0,0,0,0,0,0,0,0,0,0,0,0,0,0,0,0,0,0,0,0,0,0,
0,0,0,0,0,0,0,0,0,0,0,0,0,0,0,0,0,0,0,0,0,0,0,0,0,0,0,0,0,0,0,0,0,0,0,0,0,0,0,0,0,0,0,0,0,0,0,0,0,0,0,0,0,0,0,0,0,0,0,0,
0,0,0,0,0,0,0,0,0,0,0,0,0,0,0,0,0,0,0,0,0,0,0,0,0,0,0,0,0,0,0,0,0,0,0,0,0,0,0,0,0,0,0,0,0,0,0,0,0,0,0,0,0,0,0,0,0,0,0,0
</data>
 </layer>
</map>
