<?xml version="1.0" encoding="UTF-8"?>
<map version="1.10" tiledversion="1.10.2" orientation="orthogonal" renderorder="right-down" width="36" height="27" tilewidth="16" tileheight="16" infinite="0" nextlayerid="8" nextobjectid="1">
 <tileset firstgid="1" source="FLOOR1.tsx"/>
 <tileset firstgid="151" source="COLLISION.tsx"/>
 <tileset firstgid="152" source="HOTSPOT.tsx"/>
 <tileset firstgid="184" source="EVENT.tsx"/>
 <layer id="1" name="Background" width="36" height="27">
  <data encoding="csv">
25,32,32,32,32,32,32,32,32,32,32,26,32,23,1,1,1,1,31,32,32,32,26,32,32,32,32,32,26,32,32,32,32,32,32,24,
21,9,9,50,50,9,9,50,50,81,82,21,9,137,1,1,1,1,136,9,9,9,21,9,9,50,50,9,47,86,86,39,86,58,59,21,
21,90,12,12,12,12,12,12,12,96,97,21,12,139,35,35,35,35,138,12,12,12,21,12,12,12,12,12,131,101,101,54,101,73,74,21,
21,105,35,35,35,35,35,35,35,111,112,21,35,141,35,35,35,35,140,35,35,35,47,13,14,35,35,35,132,124,110,85,85,88,89,21,
21,35,35,35,35,35,35,35,35,126,75,21,35,35,35,35,35,35,35,35,35,35,131,28,29,35,35,35,35,35,125,100,100,100,100,21,
20,32,32,23,35,35,31,32,32,32,32,2,35,35,35,35,35,35,35,35,35,35,132,43,44,35,35,35,35,35,49,115,115,115,115,21,
8,9,9,10,35,35,15,9,61,77,80,10,35,35,35,35,35,35,35,35,35,35,35,35,35,35,35,35,35,35,35,35,35,35,35,21,
93,94,12,11,35,35,30,12,12,12,95,11,35,35,35,35,35,35,35,35,35,35,35,35,35,35,35,35,35,35,35,35,35,35,35,21,
108,109,35,35,35,35,45,35,35,35,35,35,35,35,35,35,35,35,35,35,35,35,22,35,35,70,71,35,35,35,35,70,71,35,35,21,
31,32,24,35,35,35,35,35,35,35,35,35,35,35,35,35,35,35,35,35,35,35,21,35,40,72,87,41,35,35,40,72,87,41,35,21,
16,17,21,35,35,35,35,35,35,35,35,35,35,35,35,35,35,35,35,35,35,35,21,35,55,102,117,56,35,35,55,102,117,56,35,21,
18,19,21,35,35,35,35,35,35,35,35,35,35,35,35,35,35,35,35,35,35,35,21,35,35,42,57,35,35,35,35,42,57,35,35,21,
1,1,21,35,35,35,35,35,35,35,35,35,35,35,35,35,35,35,35,35,35,35,20,32,32,32,32,32,32,32,32,32,32,32,32,2,
65,1,20,32,32,23,35,35,35,35,31,32,32,32,32,24,35,35,35,35,35,35,8,9,80,9,146,146,146,146,9,9,9,9,9,10,
65,1,16,4,5,62,35,35,35,35,16,17,4,5,17,21,35,35,35,35,35,35,7,12,95,12,147,147,147,147,12,12,12,12,63,64,
65,1,18,92,19,46,35,35,35,35,18,19,19,92,19,21,35,35,35,35,35,35,35,35,35,35,148,148,148,148,35,35,35,35,78,79,
65,1,6,91,6,6,6,6,6,6,6,6,6,91,6,21,35,35,35,35,35,35,35,35,35,35,35,35,35,35,35,35,35,35,130,22,
65,1,6,106,6,6,6,6,6,6,6,6,6,106,6,21,35,35,35,35,35,35,35,35,35,35,35,35,35,35,35,35,35,35,35,21,
65,1,6,6,6,6,6,6,6,6,6,6,6,6,6,21,35,35,35,35,35,35,35,35,35,35,35,35,35,35,35,35,35,35,35,21,
65,65,6,6,6,6,6,6,6,6,6,6,6,6,6,3,23,35,35,31,26,23,36,37,31,26,23,35,35,31,32,32,32,32,32,48,
65,123,6,6,6,6,6,6,6,6,6,6,6,6,6,21,60,35,35,15,21,10,144,145,8,21,10,35,35,15,9,9,9,33,34,21,
1,122,6,6,6,6,6,6,6,6,6,6,6,6,6,21,38,35,35,30,21,38,66,67,7,21,11,35,35,30,12,103,104,12,12,21,
1,122,6,6,6,6,6,6,6,6,6,6,6,6,6,21,53,35,35,45,21,53,35,35,35,21,35,35,35,45,35,118,119,41,35,21,
1,122,6,76,6,6,6,6,76,6,6,6,6,76,6,21,68,69,35,35,21,68,69,35,35,21,35,35,35,35,35,133,134,56,35,21,
1,122,6,91,6,6,6,6,91,6,6,6,6,91,6,20,32,32,32,32,27,32,32,32,32,27,32,32,32,32,32,32,32,32,32,2,
65,121,31,107,32,32,32,32,107,32,32,32,32,107,32,16,17,5,5,17,17,17,5,5,17,17,17,5,5,17,17,17,4,5,17,62,
65,65,18,19,19,19,19,19,19,19,19,19,19,19,19,19,19,19,19,19,19,19,19,19,19,19,19,19,19,19,19,19,19,19,19,46
</data>
 </layer>
 <layer id="4" name="Collision" width="36" height="27">
  <data encoding="csv">
151,151,151,151,151,151,151,151,151,151,151,151,151,151,151,151,151,151,151,151,151,151,151,151,151,151,151,151,151,151,151,151,151,151,151,151,
151,151,151,151,151,151,151,151,151,151,151,151,151,151,151,151,151,151,151,151,151,151,151,151,151,151,151,151,151,151,151,151,151,151,151,151,
151,151,0,0,0,0,0,0,0,151,151,151,0,151,0,0,0,0,151,0,0,0,151,151,151,0,0,0,151,151,151,151,151,151,151,151,
151,151,0,0,0,0,0,0,0,0,151,151,0,0,0,0,0,0,0,0,0,0,151,151,151,0,0,0,151,0,151,151,151,151,151,151,
151,0,0,0,0,0,0,0,0,0,151,151,0,0,0,0,0,0,0,0,0,0,151,151,151,0,0,0,0,0,151,151,151,151,151,151,
151,151,151,151,0,0,151,151,151,151,151,151,0,0,0,0,0,0,0,0,0,0,0,0,0,0,0,0,0,0,0,0,0,0,0,151,
151,151,151,151,0,0,151,151,151,151,151,151,0,0,0,0,0,0,0,0,0,0,0,0,0,0,0,0,0,0,0,0,0,0,0,151,
151,0,0,0,0,0,151,0,0,0,0,0,0,0,0,0,0,0,0,0,0,0,0,0,0,0,0,0,0,0,0,0,0,0,0,151,
151,0,0,0,0,0,0,0,0,0,0,0,0,0,0,0,0,0,0,0,0,0,151,0,0,151,151,0,0,0,0,151,151,0,0,151,
151,151,151,0,0,0,0,0,0,0,0,0,0,0,0,0,0,0,0,0,0,0,151,0,151,151,151,151,0,0,151,151,151,151,0,151,
151,151,151,0,0,0,0,0,0,0,0,0,0,0,0,0,0,0,0,0,0,0,151,0,151,151,151,151,0,0,151,151,151,151,0,151,
151,151,151,0,0,0,0,0,0,0,0,0,0,0,0,0,0,0,0,0,0,0,151,0,0,151,151,0,0,0,0,151,151,0,0,151,
151,151,151,0,0,0,0,0,0,0,0,0,0,0,0,0,0,0,0,0,0,0,151,151,151,151,151,151,151,151,151,151,151,151,151,151,
151,0,151,151,151,151,0,0,0,0,151,151,151,151,151,151,0,0,0,0,0,0,151,151,151,151,151,151,151,151,151,151,151,151,151,151,
151,0,151,151,151,151,0,0,0,0,151,151,151,151,151,151,0,0,0,0,0,0,0,0,0,0,151,151,151,151,0,0,0,0,0,151,
151,0,0,151,0,0,0,0,0,0,0,0,0,151,0,151,0,0,0,0,0,0,0,0,0,0,0,0,0,0,0,0,0,0,0,151,
151,0,0,151,0,0,0,0,0,0,0,0,0,151,0,151,0,0,0,0,0,0,0,0,0,0,0,0,0,0,0,0,0,0,0,151,
151,0,0,151,0,0,0,0,0,0,0,0,0,151,0,151,0,0,0,0,0,0,0,0,0,0,0,0,0,0,0,0,0,0,0,151,
151,0,0,0,0,0,0,0,0,0,0,0,0,0,0,151,0,0,0,0,0,0,0,0,0,0,0,0,0,0,0,0,0,0,0,151,
151,0,0,0,0,0,0,0,0,0,0,0,0,0,0,151,151,0,0,151,151,151,151,151,151,151,151,0,0,151,151,151,151,151,151,151,
151,0,0,0,0,0,0,0,0,0,0,0,0,0,0,151,151,0,0,151,151,151,151,151,151,151,151,0,0,151,151,151,151,151,151,151,
151,0,0,0,0,0,0,0,0,0,0,0,0,0,0,151,151,0,0,151,151,151,0,0,0,151,0,0,0,151,0,151,151,0,0,151,
151,0,0,0,0,0,0,0,0,0,0,0,0,0,0,151,151,0,0,0,151,151,0,0,0,151,0,0,0,0,0,151,151,151,0,151,
151,0,0,151,0,0,0,0,151,0,0,0,0,151,0,151,151,151,0,0,151,151,151,0,0,151,0,0,0,0,0,151,151,0,0,151,
151,0,0,151,0,0,0,0,151,0,0,0,0,151,0,151,151,151,151,151,151,151,151,151,151,151,151,151,151,151,151,151,151,151,151,151,
151,151,151,151,151,151,151,151,151,151,151,151,151,151,151,151,151,151,151,151,151,151,151,151,151,151,151,151,151,151,151,151,151,151,151,151,
151,151,0,0,0,0,0,0,0,0,0,0,0,0,0,0,0,0,0,0,0,0,0,0,0,0,0,0,0,0,0,0,0,0,0,0
</data>
 </layer>
 <layer id="6" name="Hotspot" width="36" height="27">
  <data encoding="csv">
0,0,0,0,0,0,0,0,0,0,0,0,0,0,0,0,0,0,0,0,0,0,0,0,0,0,0,0,0,0,0,0,0,0,0,0,
0,0,0,152,152,0,0,0,0,0,0,0,0,0,0,0,0,0,0,0,0,0,0,0,0,152,152,0,0,0,0,0,0,0,0,0,
0,0,0,152,152,0,0,0,163,163,0,0,0,0,0,0,0,0,0,0,0,0,0,0,0,152,152,0,0,0,0,0,0,0,0,0,
0,169,169,0,0,0,0,0,0,0,0,0,0,0,0,0,0,0,0,0,0,0,0,0,0,0,0,0,0,0,0,0,0,0,0,0,
0,0,0,0,0,0,0,0,0,162,162,0,0,0,0,0,0,0,0,0,0,0,0,160,160,160,165,0,0,0,0,0,0,0,0,0,
0,0,0,0,0,0,0,0,0,0,0,0,0,0,0,0,0,0,0,0,0,0,0,160,160,160,165,165,0,0,161,161,161,161,161,0,
0,0,0,0,167,167,0,0,159,159,153,0,0,0,0,168,168,0,166,0,0,0,0,165,165,165,165,165,0,0,0,0,0,0,0,0,
0,0,0,0,167,167,0,0,159,159,153,0,0,0,168,168,168,168,166,0,0,0,0,0,0,0,0,0,0,0,0,0,0,0,0,0,
0,0,0,0,0,0,0,0,0,0,0,0,0,0,168,168,168,168,0,0,0,0,0,0,0,0,0,0,0,0,0,0,0,0,0,0,
0,0,0,0,0,0,0,0,0,0,0,0,0,0,168,168,168,168,0,0,0,0,0,0,0,0,0,0,0,0,0,0,0,0,0,0,
0,0,0,0,0,0,0,0,0,0,0,0,0,0,0,168,168,0,0,0,0,0,0,0,0,0,0,0,0,0,0,0,0,0,0,0,
0,0,0,0,0,0,0,0,0,0,0,0,0,0,0,0,0,0,0,0,0,0,0,0,0,0,0,0,0,0,0,0,0,0,0,0,
0,0,0,0,0,0,0,0,0,0,0,0,0,0,0,0,0,0,0,0,0,0,0,0,0,0,0,0,0,0,0,0,0,0,0,0,
0,0,0,0,0,0,0,0,0,0,0,0,0,0,0,0,0,0,0,0,0,0,0,0,153,0,0,0,0,0,0,0,0,0,0,0,
0,0,0,0,0,0,0,0,0,0,0,0,0,0,0,0,0,0,0,0,0,0,0,0,153,0,164,164,164,164,0,0,0,0,0,0,
0,0,0,0,0,0,0,0,0,0,0,0,0,0,0,0,0,0,0,0,0,0,0,0,0,0,164,164,164,164,0,0,0,0,0,0,
0,0,0,0,0,0,0,0,0,0,0,0,0,0,0,0,0,0,0,0,0,0,0,0,0,0,0,0,0,0,0,0,170,170,0,0,
0,0,0,0,0,0,0,0,0,0,0,0,0,0,0,0,0,0,0,0,0,0,0,0,0,0,0,0,0,0,0,170,170,170,170,0,
0,0,0,0,0,0,0,0,0,0,0,0,0,0,0,0,0,0,0,0,0,0,154,154,0,0,0,0,0,0,0,170,170,170,170,0,
0,0,0,0,0,0,0,0,0,0,0,0,0,0,0,0,0,0,0,0,0,0,154,154,0,0,0,0,0,0,0,0,0,0,0,0,
0,0,0,0,0,0,0,0,0,0,0,0,0,0,0,0,156,156,0,0,0,0,0,0,0,0,0,0,0,0,0,0,0,0,0,0,
0,0,0,0,0,0,0,0,0,0,0,0,0,0,0,0,156,156,0,0,0,0,0,0,0,0,0,0,0,0,166,166,0,0,0,0,
0,0,0,0,0,0,0,0,0,0,0,0,0,0,0,0,155,155,0,0,0,0,0,0,0,0,0,0,0,0,166,166,0,0,0,0,
0,0,0,0,0,0,0,0,0,0,0,0,0,0,0,0,155,155,0,0,0,0,0,0,0,0,0,0,0,0,166,166,0,0,0,0,
0,0,0,0,0,0,0,0,0,0,0,0,0,0,0,0,0,0,0,0,0,0,0,0,0,0,0,0,0,0,0,0,0,0,0,0,
0,0,0,0,0,0,0,0,0,0,0,0,0,0,0,0,0,0,0,0,0,0,0,0,0,0,0,0,0,0,0,0,0,0,0,0,
0,0,0,0,0,0,0,0,0,0,0,0,0,0,0,0,0,0,0,0,0,0,0,0,0,0,0,0,0,0,0,0,0,0,0,0
</data>
 </layer>
 <layer id="7" name="Event" width="36" height="27">
  <data encoding="csv">
0,0,0,0,0,0,0,0,0,0,0,0,0,0,0,0,0,0,0,0,0,0,0,0,0,0,0,0,0,0,0,0,0,0,0,0,
0,0,0,0,0,0,0,0,0,0,0,0,0,0,0,0,0,0,0,0,0,0,0,0,0,0,0,0,0,0,0,0,0,0,0,0,
0,0,0,0,0,0,0,0,0,0,0,0,0,0,187,187,187,187,0,0,0,0,0,0,0,0,0,0,0,0,0,0,0,0,0,0,
0,0,0,0,0,0,0,0,0,0,0,0,0,0,0,0,0,0,0,0,0,0,0,0,0,0,0,0,0,0,0,0,0,0,0,0,
0,0,0,0,0,0,0,0,0,0,0,0,0,0,0,0,0,0,192,0,0,0,0,0,0,0,0,0,0,0,0,0,0,0,0,0,
0,0,0,0,0,0,0,0,0,0,0,0,0,0,0,0,0,0,192,0,0,0,0,0,0,0,0,0,0,0,0,0,0,0,0,0,
0,0,0,0,0,0,0,0,0,0,0,0,0,0,0,0,0,0,192,0,0,0,0,0,0,0,0,0,0,0,0,0,0,0,0,0,
184,184,0,0,0,0,0,0,0,0,0,0,0,0,0,0,0,0,192,0,0,0,0,0,0,0,0,0,0,0,0,0,0,0,0,0,
184,184,0,0,0,0,0,0,0,0,0,0,0,0,0,0,0,0,192,0,0,0,0,0,0,0,0,0,0,0,0,0,0,0,0,0,
0,0,0,0,0,0,0,0,0,0,0,0,0,0,0,0,0,0,192,192,192,192,0,0,0,0,0,0,0,0,0,0,0,0,0,0,
0,0,0,0,0,0,0,0,0,0,0,0,0,0,0,0,0,0,0,0,0,0,0,0,0,0,0,0,0,0,0,0,0,0,0,0,
0,0,0,0,0,0,0,0,0,0,0,0,0,0,0,0,0,0,0,0,0,0,0,0,0,0,0,0,0,0,0,0,0,0,0,0,
0,0,0,0,0,0,0,0,0,0,0,0,0,0,0,0,0,0,0,0,0,0,0,0,0,0,0,0,0,0,0,0,0,0,0,0,
0,0,0,0,0,0,0,0,0,0,0,0,0,0,0,0,0,0,0,0,0,0,0,0,0,0,0,0,0,0,0,0,0,0,0,0,
0,0,0,0,0,0,0,0,0,0,0,0,0,0,0,0,0,0,0,0,0,0,0,0,0,0,0,0,0,0,0,0,0,0,185,185,
0,0,0,0,0,0,0,0,0,0,0,0,0,0,0,0,0,0,0,0,0,0,0,0,0,0,0,0,0,0,0,0,0,0,185,185,
0,0,0,0,0,0,0,0,0,0,0,0,0,0,0,0,0,0,0,0,0,0,0,0,0,0,0,0,0,0,0,0,0,0,185,185,
0,0,0,0,0,0,0,0,0,0,0,0,0,0,0,0,0,0,0,0,0,0,0,0,0,0,0,0,0,0,0,0,0,0,0,0,
0,0,0,0,0,0,0,0,0,0,0,0,0,0,0,0,0,0,0,0,0,0,0,0,0,0,0,0,0,0,0,0,0,0,0,0,
0,0,0,0,0,0,0,0,0,0,0,0,0,0,0,0,0,0,0,0,0,0,0,0,0,0,0,0,0,0,0,0,0,0,0,0,
0,186,0,0,0,0,0,0,0,0,0,0,0,0,0,0,0,0,0,0,0,0,0,0,0,0,0,188,188,0,0,0,0,0,0,0,
0,186,0,0,0,0,0,0,0,0,0,0,0,0,0,0,0,0,0,0,0,0,0,0,0,0,0,0,0,0,0,0,0,0,0,0,
0,186,0,0,0,0,0,0,0,0,0,0,0,0,0,0,0,0,0,0,0,0,0,0,0,0,0,0,0,0,0,0,0,0,0,0,
0,186,0,0,0,0,0,0,0,0,0,0,0,0,0,0,0,0,0,0,0,0,0,0,0,0,0,0,0,0,0,0,0,0,0,0,
0,186,0,0,0,0,0,0,0,0,0,0,0,0,0,0,0,0,0,0,0,0,0,0,0,0,0,0,0,0,0,0,0,0,0,0,
0,0,0,0,0,0,0,0,0,0,0,0,0,0,0,0,0,0,0,0,0,0,0,0,0,0,0,0,0,0,0,0,0,0,0,0,
0,0,0,0,0,0,0,0,0,0,0,0,0,0,0,0,0,0,0,0,0,0,0,0,0,0,0,0,0,0,0,0,0,0,0,0
</data>
 </layer>
</map>
