<?xml version="1.0" encoding="UTF-8"?>
<map version="1.10" tiledversion="1.10.2" orientation="orthogonal" renderorder="right-down" width="36" height="27" tilewidth="16" tileheight="16" infinite="0" nextlayerid="8" nextobjectid="1">
 <tileset firstgid="1" source="FLOOR2.tsx"/>
 <tileset firstgid="151" source="COLLISION.tsx"/>
 <tileset firstgid="152" source="HOTSPOT.tsx"/>
 <tileset firstgid="184" source="EVENT.tsx"/>
 <layer id="1" name="Background" width="36" height="27">
  <data encoding="csv">
25,32,32,32,32,32,32,32,32,32,26,32,32,32,32,32,32,32,32,32,26,32,32,32,32,32,32,32,32,32,32,32,32,32,32,24,
21,9,9,9,9,50,50,9,9,9,21,9,9,9,9,50,50,9,9,9,21,9,9,9,50,50,9,9,9,50,50,9,33,34,9,21,
21,12,45,12,45,12,12,12,96,97,21,45,12,45,12,12,12,12,96,97,21,12,12,12,12,12,12,12,12,12,12,12,88,89,12,21,
21,35,55,35,55,35,35,35,111,112,21,55,35,55,35,35,35,35,111,112,21,35,40,72,35,35,40,72,35,35,35,35,103,104,41,21,
21,35,40,35,40,14,35,35,126,127,21,40,35,14,35,35,13,35,126,127,21,35,55,87,35,35,55,87,35,35,35,35,118,119,56,21,
20,32,32,32,23,29,35,35,31,32,27,32,23,29,35,35,28,31,32,32,123,35,35,102,35,35,35,102,35,35,35,35,133,134,60,21,
9,9,9,9,10,44,35,35,8,9,15,9,10,44,35,35,43,8,9,9,21,35,40,72,35,35,40,72,35,35,35,35,35,35,75,21,
81,82,12,12,11,59,35,35,7,12,30,12,11,59,35,35,58,7,12,12,21,35,55,87,35,35,55,87,35,35,35,35,35,35,90,21,
63,64,35,35,35,35,35,35,35,35,35,35,35,35,35,35,35,35,35,35,21,35,35,102,35,35,35,102,35,35,35,35,35,35,35,21,
78,79,35,35,35,35,35,35,35,35,35,35,35,35,35,35,35,35,35,35,21,35,35,14,35,35,35,35,35,35,35,35,35,35,35,21,
32,32,24,35,35,35,35,35,35,35,35,35,35,35,35,35,35,35,35,35,20,32,32,29,35,35,31,32,32,32,32,32,32,32,32,2,
16,17,20,32,32,32,32,32,32,32,32,32,32,32,32,24,35,35,35,35,8,15,10,44,35,35,8,128,129,9,9,9,9,9,9,9,
18,19,16,17,17,4,5,17,17,17,4,5,17,17,17,21,35,35,35,35,7,30,11,59,35,35,7,12,12,12,12,12,12,12,81,82,
65,1,18,19,19,19,19,19,19,19,19,19,19,19,19,21,35,35,35,35,35,35,35,35,35,35,35,35,35,35,35,35,35,35,93,94,
65,1,76,121,121,121,121,121,121,121,121,121,121,121,121,21,35,14,35,35,35,35,35,35,35,35,35,14,35,35,35,35,35,35,108,109,
65,1,106,49,49,49,49,49,49,49,49,49,49,49,49,3,23,29,35,35,25,23,36,37,31,26,23,29,35,35,31,32,32,32,32,24,
65,1,106,122,122,122,122,122,122,122,122,122,122,122,122,21,10,44,35,35,21,10,124,125,8,21,10,44,35,35,8,33,34,9,9,21,
65,1,106,122,122,61,61,122,122,122,61,61,122,122,122,21,11,59,35,35,21,11,66,67,7,21,11,59,35,35,7,12,88,89,12,21,
65,1,106,122,122,61,61,122,122,122,61,61,122,122,122,21,35,35,35,35,21,35,35,35,35,21,40,72,35,35,35,35,103,104,41,21,
65,1,106,122,122,122,122,122,122,122,122,122,122,122,122,21,38,35,35,35,21,38,35,35,35,21,55,87,35,35,35,35,118,119,56,21,
65,1,106,122,122,61,61,122,122,122,61,61,122,122,122,21,53,35,35,35,21,53,35,35,35,21,35,102,35,35,35,35,133,134,60,21,
65,1,106,122,122,61,61,122,122,122,61,61,122,122,122,21,68,69,35,35,21,68,69,35,35,21,40,72,35,35,35,35,35,35,75,21,
65,65,106,122,122,122,122,122,122,122,122,122,122,122,122,20,32,32,32,32,27,32,32,32,32,27,32,32,32,32,32,32,32,32,32,2,
65,65,91,121,121,121,121,121,121,121,121,121,121,121,121,16,17,4,5,17,17,17,4,5,17,17,17,4,5,17,17,17,4,5,17,62,
65,65,48,49,49,49,49,49,49,49,49,49,49,49,49,16,17,17,17,17,17,17,17,17,17,17,17,17,17,17,17,17,17,17,17,62,
65,65,31,107,32,32,32,32,107,32,32,32,32,107,32,16,17,4,5,17,17,17,4,5,17,17,17,4,5,17,17,17,4,5,17,62,
65,65,18,19,19,19,19,19,19,19,19,19,19,19,19,19,19,19,19,19,19,19,19,19,19,19,19,19,19,19,19,19,19,19,19,46
</data>
 </layer>
 <layer id="4" name="Collision" width="36" height="27">
  <data encoding="csv">
151,151,151,151,151,151,151,151,151,151,151,151,151,151,151,151,151,151,151,151,151,151,151,151,151,151,151,151,151,151,151,151,151,151,151,151,
151,151,151,151,151,151,151,151,151,151,151,151,151,151,151,151,151,151,151,151,151,151,151,151,151,151,151,151,151,151,151,151,151,151,151,151,
151,0,151,0,151,0,0,0,151,151,151,151,0,151,0,0,0,0,151,151,151,0,0,0,0,0,0,0,0,0,0,0,151,151,151,151,
151,0,0,0,0,0,0,0,151,151,151,0,0,0,0,0,0,0,151,151,151,0,151,151,0,0,151,151,0,0,0,0,151,151,151,151,
151,0,151,0,151,151,0,0,151,151,151,0,0,151,0,0,151,0,151,151,151,0,0,0,0,0,0,0,0,0,0,0,151,151,0,151,
151,151,151,151,151,151,0,0,151,151,151,151,151,151,0,0,151,151,151,151,151,0,0,0,0,0,0,0,0,0,0,0,0,0,0,151,
151,151,151,151,151,151,0,0,151,151,151,151,151,151,0,0,151,151,151,151,151,0,151,151,0,0,151,151,0,0,0,0,0,0,0,151,
151,0,0,0,0,0,0,0,0,0,0,0,0,0,0,0,0,0,0,0,151,0,0,0,0,0,0,0,0,0,0,0,0,0,0,151,
151,0,0,0,0,0,0,0,0,0,0,0,0,0,0,0,0,0,0,0,151,0,0,0,0,0,0,0,0,0,0,0,0,0,0,151,
151,0,0,0,0,0,0,0,0,0,0,0,0,0,0,0,0,0,0,0,151,0,0,151,0,0,0,0,0,0,0,0,0,0,0,151,
151,151,151,0,0,0,0,0,0,0,0,0,0,0,0,0,0,0,0,0,151,151,151,151,0,0,151,151,151,151,151,151,151,151,151,151,
151,151,151,151,151,151,151,151,151,151,151,151,151,151,151,151,0,0,0,0,151,151,151,151,0,0,151,151,151,151,151,151,151,151,151,151,
151,151,151,151,151,151,151,151,151,151,151,151,151,151,151,151,0,0,0,0,0,0,0,0,0,0,0,0,0,0,0,0,0,0,0,151,
151,151,151,151,151,151,151,151,151,151,151,151,151,151,151,151,0,0,0,0,0,0,0,0,0,0,0,0,0,0,0,0,0,0,0,151,
151,151,151,151,151,151,151,151,151,151,151,151,151,151,151,151,0,151,0,0,0,0,0,0,0,0,0,151,0,0,0,0,0,0,0,151,
151,151,151,151,151,151,151,151,151,151,151,151,151,151,151,151,151,151,0,0,151,151,151,151,151,151,151,151,0,0,151,151,151,151,151,151,
151,151,151,151,151,151,151,151,151,151,151,151,151,151,151,151,151,151,0,0,151,151,151,151,151,151,151,151,0,0,151,151,151,151,151,151,
151,151,151,151,151,151,151,151,151,151,151,151,151,151,151,151,0,0,0,0,151,0,0,0,0,151,151,151,0,0,0,0,151,151,151,151,
151,151,151,151,151,151,151,151,151,151,151,151,151,151,151,151,0,0,0,0,151,0,0,0,0,151,151,151,0,0,0,0,151,151,151,151,
151,151,151,151,151,151,151,151,151,151,151,151,151,151,151,151,151,0,0,0,151,151,0,0,0,151,0,0,0,0,0,0,0,0,0,151,
151,151,151,151,151,151,151,151,151,151,151,151,151,151,151,151,151,0,0,0,151,151,0,0,0,151,0,0,0,0,0,0,0,0,0,151,
151,151,151,151,151,151,151,151,151,151,151,151,151,151,151,151,151,151,0,0,151,151,151,0,0,151,151,151,0,0,0,0,0,0,0,151,
151,151,151,151,151,151,151,151,151,151,151,151,151,151,151,151,151,151,151,151,151,151,151,151,151,151,151,151,151,151,151,151,151,151,151,151,
151,151,151,151,151,151,151,151,151,151,151,151,151,151,151,151,151,151,151,151,151,151,151,151,151,151,151,151,151,151,151,151,151,151,151,151,
151,151,151,151,151,151,151,151,151,151,151,151,151,151,151,151,151,151,151,151,151,151,151,151,151,151,151,151,151,151,151,151,151,151,151,151,
151,151,151,151,151,151,151,151,151,151,151,151,151,151,151,151,151,151,151,151,151,151,151,151,151,151,151,151,151,151,151,151,151,151,151,151,
151,151,151,151,151,151,151,151,151,151,151,151,151,151,151,151,151,151,151,151,151,151,151,151,151,151,151,151,151,151,151,151,151,151,151,151
</data>
 </layer>
 <layer id="6" name="Hotspot" width="36" height="27">
  <data encoding="csv">
0,0,0,0,0,0,0,0,0,0,0,0,0,0,0,0,0,0,0,0,0,0,0,0,0,0,0,0,0,0,0,0,0,0,0,0,
0,0,0,0,0,152,152,0,0,0,0,0,0,0,0,152,152,0,0,0,0,0,0,0,152,152,0,0,0,152,152,0,0,0,0,0,
0,0,0,0,0,152,152,0,0,0,0,0,0,0,0,152,152,0,0,0,0,0,0,0,152,152,0,0,0,152,152,0,0,0,0,0,
0,0,0,0,0,0,0,0,0,0,0,0,0,0,0,0,0,0,0,0,0,0,0,0,0,0,0,0,0,0,0,0,0,0,0,0,
0,0,0,0,0,0,0,0,0,0,0,0,0,0,0,0,0,0,0,0,0,0,0,0,0,0,0,0,0,0,0,0,0,0,0,0,
0,0,0,0,0,0,0,0,0,0,0,0,0,0,0,0,0,0,0,0,0,0,0,0,0,0,0,0,0,0,0,0,0,0,0,0,
0,0,0,0,0,0,0,0,0,0,153,0,0,0,0,0,0,0,0,0,0,0,0,0,0,0,0,0,0,0,0,0,0,0,0,0,
0,0,0,0,0,0,0,0,0,0,153,0,0,0,0,0,0,0,0,0,0,0,0,0,0,0,0,0,0,0,0,0,0,0,0,0,
0,0,0,0,0,0,0,0,163,163,163,163,163,163,0,0,0,0,0,0,0,0,0,0,0,0,0,0,0,0,0,0,0,0,0,0,
0,0,0,0,0,0,0,0,163,163,163,163,163,163,0,0,0,0,0,0,0,0,0,0,0,0,0,0,0,0,0,0,0,0,0,0,
0,0,0,0,0,164,164,0,0,0,152,152,0,0,0,0,0,0,0,0,0,0,0,0,0,0,0,0,0,0,0,0,0,0,0,0,
0,0,0,0,0,164,164,0,0,0,152,152,0,0,0,0,0,0,0,0,0,153,0,0,0,0,0,0,0,0,0,0,0,0,0,0,
0,0,0,0,0,0,0,0,0,0,0,0,0,0,0,0,0,0,0,0,0,153,0,0,0,0,0,0,0,0,0,0,0,0,0,0,
0,0,0,0,0,0,0,0,0,0,0,0,0,0,0,0,0,0,0,0,0,0,0,0,0,0,0,0,0,0,0,0,0,0,0,0,
0,0,0,0,0,0,0,0,0,0,0,0,0,0,0,0,0,0,0,0,0,0,154,154,0,0,0,0,0,0,0,0,0,0,0,0,
0,0,0,0,0,0,0,0,0,0,0,0,0,0,0,0,0,0,0,0,0,0,154,154,0,0,0,0,0,0,0,0,0,0,0,0,
0,0,0,0,0,0,0,0,0,0,0,0,0,0,0,0,0,0,0,0,0,0,154,154,0,0,0,0,0,0,0,0,0,0,0,0,
0,0,0,0,0,0,0,0,0,0,0,0,0,0,0,156,156,0,0,0,0,0,0,0,0,0,0,0,0,0,0,0,0,0,0,0,
0,0,0,0,0,0,0,0,0,0,0,0,0,0,0,156,156,0,0,0,0,0,0,0,0,0,0,0,0,0,0,0,0,0,0,0,
0,0,0,0,0,0,0,0,0,0,0,0,0,0,0,0,155,155,0,0,0,0,0,0,0,0,0,0,0,0,0,0,0,0,0,0,
0,0,0,0,0,0,0,0,0,0,0,0,0,0,0,0,155,155,0,0,0,0,0,0,0,0,0,0,0,0,0,0,0,162,162,0,
0,0,0,0,0,0,0,0,0,0,0,0,0,0,0,0,155,155,0,0,0,0,0,0,0,0,0,0,0,0,0,0,0,162,162,0,
0,0,0,0,0,0,0,0,0,0,0,0,0,0,0,0,0,0,0,0,0,0,0,0,0,0,0,0,0,0,0,0,0,0,0,0,
0,0,0,0,0,0,0,0,0,0,0,0,0,0,0,0,0,0,0,0,0,0,0,0,0,0,0,0,0,0,0,0,0,0,0,0,
0,0,0,0,0,0,0,0,0,0,0,0,0,0,0,0,0,0,0,0,0,0,0,0,0,0,0,0,0,0,0,0,0,0,0,0,
0,0,0,0,0,0,0,0,0,0,0,0,0,0,0,0,0,0,0,0,0,0,0,0,0,0,0,0,0,0,0,0,0,0,0,0,
0,0,0,0,0,0,0,0,0,0,0,0,0,0,0,0,0,0,0,0,0,0,0,0,0,0,0,0,0,0,0,0,0,0,0,0
</data>
 </layer>
 <layer id="7" name="Event" width="36" height="27">
  <data encoding="csv">
0,0,0,0,0,0,0,0,0,0,0,0,0,0,0,0,0,0,0,0,0,0,0,0,0,0,0,0,0,0,0,0,0,0,0,0,
0,0,0,0,0,0,0,0,0,0,0,0,0,0,0,0,0,0,0,0,0,0,0,0,0,0,0,0,0,0,0,0,0,0,0,0,
0,0,0,0,0,0,0,0,0,0,0,0,0,0,0,0,0,0,0,0,0,0,0,0,0,0,0,0,0,0,0,0,0,0,0,0,
0,0,0,0,0,0,0,0,0,0,0,0,0,0,0,0,0,0,0,0,0,0,0,0,0,0,0,0,0,0,0,0,0,0,0,0,
0,0,0,0,0,0,0,0,0,0,0,0,0,0,0,0,0,0,0,0,0,0,0,0,0,0,0,0,0,0,0,0,0,0,0,0,
0,0,0,0,0,0,190,190,0,0,0,0,0,0,189,189,0,0,0,0,0,0,0,0,0,0,0,0,0,0,0,0,0,0,0,0,
0,0,0,0,0,0,190,190,0,0,0,0,0,0,189,189,0,0,0,0,0,0,0,0,0,0,0,0,0,0,0,0,0,0,0,0,
0,0,0,0,0,0,0,0,0,0,0,0,0,0,0,0,0,0,0,0,0,0,0,0,0,0,0,0,0,0,0,0,0,0,0,0,
184,184,0,0,0,0,0,0,0,0,0,0,0,0,0,0,0,0,0,0,0,0,0,0,0,0,0,0,0,0,0,0,0,0,0,0,
184,184,0,0,0,0,0,0,0,0,0,0,0,0,0,0,0,0,0,0,0,0,0,0,0,0,0,0,0,0,0,0,0,0,0,0,
0,0,0,0,0,0,0,0,0,0,0,0,0,0,0,0,0,0,0,0,0,0,0,0,186,186,0,0,0,0,0,0,0,0,0,0,
0,0,0,0,0,0,0,0,0,0,0,0,0,0,0,0,0,0,0,0,0,0,0,0,186,186,0,0,0,0,0,0,0,0,0,0,
0,0,0,0,0,0,0,0,0,0,0,0,0,0,0,0,0,0,0,0,0,0,0,0,0,0,0,0,0,0,0,0,0,0,0,0,
0,0,0,0,0,0,0,0,0,0,0,0,0,0,0,0,0,0,0,0,0,0,0,0,0,0,0,0,0,0,0,0,0,0,185,185,
0,0,0,0,0,0,0,0,0,0,0,0,0,0,0,0,0,0,0,0,0,0,0,0,0,0,0,0,0,0,0,0,0,0,185,185,
0,0,0,0,0,0,0,0,0,0,0,0,0,0,0,0,0,0,0,0,0,0,0,0,0,0,0,0,0,0,0,0,0,0,0,0,
0,0,0,0,0,0,0,0,0,0,0,0,0,0,0,0,0,0,188,188,0,0,0,0,0,0,0,0,187,187,0,0,0,0,0,0,
0,0,0,0,0,0,0,0,0,0,0,0,0,0,0,0,0,0,188,188,0,0,0,0,0,0,0,0,187,187,0,0,0,0,0,0,
0,0,0,0,0,0,0,0,0,0,0,0,0,0,0,0,0,0,0,0,0,0,0,0,0,0,0,0,0,0,0,0,0,0,0,0,
0,0,0,0,0,0,0,0,0,0,0,0,0,0,0,0,0,0,0,0,0,0,0,0,0,0,0,0,0,0,0,0,0,0,0,0,
0,0,0,0,0,0,0,0,0,0,0,0,0,0,0,0,0,0,0,0,0,0,0,0,0,0,0,0,0,0,0,0,0,0,0,0,
0,0,0,0,0,0,0,0,0,0,0,0,0,0,0,0,0,0,0,0,0,0,0,0,0,0,0,0,0,0,0,0,0,0,0,0,
0,0,0,0,0,0,0,0,0,0,0,0,0,0,0,0,0,0,0,0,0,0,0,0,0,0,0,0,0,0,0,0,0,0,0,0,
0,0,0,0,0,0,0,0,0,0,0,0,0,0,0,0,0,0,0,0,0,0,0,0,0,0,0,0,0,0,0,0,0,0,0,0,
0,0,0,0,0,0,0,0,0,0,0,0,0,0,0,0,0,0,0,0,0,0,0,0,0,0,0,0,0,0,0,0,0,0,0,0,
0,0,0,0,0,0,0,0,0,0,0,0,0,0,0,0,0,0,0,0,0,0,0,0,0,0,0,0,0,0,0,0,0,0,0,0,
0,0,0,0,0,0,0,0,0,0,0,0,0,0,0,0,0,0,0,0,0,0,0,0,0,0,0,0,0,0,0,0,0,0,0,0
</data>
 </layer>
</map>
